Cool Icons Themes/Cool-Dark-Icons/applets/48/weather-clouds-wind-night-symbolic.svg

<?xml version="1.0" encoding="UTF-8" standalone="no"?>
<svg xmlns="http://www.w3.org/2000/svg" xmlns:xlink="http://www.w3.org/1999/xlink" width="48" height="48">
 <style id="current-color-scheme" type="text/css">
  .ColorScheme-Text {
    color:#232629;
  }
 </style>
 <g id="weather-clouds-wind-night-symbolic" class="ColorScheme-Text" stroke-linejoin="bevel">
  <path d="m14.6 29 a14 14 0 0 1 4.4 -20 a15 15 0 0 0 -9.1 24.7 " fill="none" stroke="currentColor" stroke-width="2"/>
  <path class="ColorScheme-Text" id="cloud" d="m34 39 h 2 a 7 7 0 0 0 0.95 -13.92 h -3 a 9 9 0 0 0 -8.95-8.08 a 9 9 0 0 0 -8.36 12.31 a 5 5 0 1 0 -1.63 9.69h1 " fill="none" stroke="currentColor" stroke-width="2"/>
  <path id="wind1" class="ColorScheme-Text" d="m18 32 h11 a3 3 0 1 0 -3 -3" stroke="currentColor" stroke-width="2" fill="none"/>
  <path id="wind2" class="ColorScheme-Text" d="m15 35 h22 a3 3 0 1 0 -3 -3" stroke="currentColor" stroke-width="2" fill="none"/>
  <path id="wind3" class="ColorScheme-Text" d="m17 38 h12 a3 3 0 1 1 -3 3"  stroke="currentColor" stroke-width="2" fill="none"/>
  <rect width="48" height="48" fill="none"/>
 </g>
</svg>

<?xml version="1.0" encoding="UTF-8" standalone="no"?>
<svg
   width="48"
   height="48"
   version="1.1"
   id="svg1"
   sodipodi:docname="weather-clouds-wind-night-symbolic.svg"
   inkscape:version="1.4 (unknown)"
   xmlns:inkscape="http://www.inkscape.org/namespaces/inkscape"
   xmlns:sodipodi="http://sodipodi.sourceforge.net/DTD/sodipodi-0.dtd"
   xmlns="http://www.w3.org/2000/svg"
   xmlns:svg="http://www.w3.org/2000/svg">
  <defs
     id="defs1" />
  <sodipodi:namedview
     id="namedview1"
     pagecolor="#ffffff"
     bordercolor="#000000"
     borderopacity="0.25"
     inkscape:showpageshadow="2"
     inkscape:pageopacity="0.0"
     inkscape:pagecheckerboard="0"
     inkscape:deskcolor="#d1d1d1"
     inkscape:zoom="6.6666667"
     inkscape:cx="25.275"
     inkscape:cy="34.275"
     inkscape:window-width="1920"
     inkscape:window-height="996"
     inkscape:window-x="0"
     inkscape:window-y="0"
     inkscape:window-maximized="1"
     inkscape:current-layer="svg1" />
  <style
     id="current-color-scheme"
     type="text/css">
  .ColorScheme-Text {
    color:#232629;
  }
 </style>
  <path
     d="M 14.6,29 A 14,14 0 0 1 19,9 15,15 0 0 0 9.9,33.7"
     fill="none"
     stroke="currentColor"
     stroke-width="2"
     id="path1"
     style="color:#232629;stroke-linejoin:bevel;stroke:#f1f3f3;stroke-opacity:1" />
  <path
     class="ColorScheme-Text"
     id="cloud"
     d="m 34,39 h 2 a 7,7 0 0 0 0.95,-13.92 h -3 A 9,9 0 0 0 25,17 9,9 0 0 0 16.64,29.31 5,5 0 1 0 15.01,39 h 1"
     fill="none"
     stroke="currentColor"
     stroke-width="2"
     style="stroke-linejoin:bevel;stroke:#f1f3f3;stroke-opacity:1" />
  <path
     id="wind1"
     class="ColorScheme-Text"
     d="M 18,32 H 29 A 3,3 0 1 0 26,29"
     stroke="currentColor"
     stroke-width="2"
     fill="none"
     style="stroke-linejoin:bevel;stroke:#f1f2f3;stroke-opacity:1" />
  <path
     id="wind2"
     class="ColorScheme-Text"
     d="M 15,35 H 37 A 3,3 0 1 0 34,32"
     stroke="currentColor"
     stroke-width="2"
     fill="none"
     style="stroke-linejoin:bevel;stroke:#f1f2f3;stroke-opacity:1" />
  <path
     id="wind3"
     class="ColorScheme-Text"
     d="m 17,38 h 12 a 3,3 0 1 1 -3,3"
     stroke="currentColor"
     stroke-width="2"
     fill="none"
     style="stroke-linejoin:bevel;stroke:#f1f2f3;stroke-opacity:1" />
  <rect
     width="48"
     height="48"
     fill="none"
     id="rect1"
     x="0"
     y="0"
     style="color:#232629;stroke-linejoin:bevel" />
</svg>
